X: 413
T: Leather away with the Wattle
N:"Lively" "collected by F.O'Neill"
N:Irish title: buail leat leis an .bata
B:O'Neill's 413
Z:Transcribed by henrik.norbeck@mailbox.swipnet.se
M:2/4
L:1/8
K:D
(A/B/c) | .d.A.F.A | .d2 (d/e/f/g/) | .e.d.c.d | (e/f/g) fg |
af ge | d2 AF | (G/A/B/c/) AG | FD D2 ||
d/e/ | ff fd | .g.g ge | ff fa | gf .e(f/g/) |
af ge | d2 AF | (G/A/B/c/) AG | FD D ||


